packages/ffe-icons/icons/open/400/sm/fullscreen.svg

<svg xmlns="http://www.w3.org/2000/svg" height="20" viewBox="0 -960 960 960" width="20"><path d="M216-216h84q15.3 0 25.65 10.289 10.35 10.29 10.35 25.5Q336-165 325.65-154.5 315.3-144 300-144H180q-15.3 0-25.65-10.35Q144-164.7 144-180v-120q0-15.3 10.289-25.65 10.29-10.35 25.5-10.35Q195-336 205.5-325.65 216-315.3 216-300v84Zm528 0v-84q0-15.3 10.289-25.65 10.29-10.35 25.5-10.35Q795-336 805.5-325.65 816-315.3 816-300v120q0 15.3-10.35 25.65Q795.3-144 780-144H660q-15.3 0-25.65-10.289-10.35-10.29-10.35-25.5Q624-195 634.35-205.5 644.7-216 660-216h84ZM216-744v84q0 15.3-10.289 25.65-10.29 10.35-25.5 10.35Q165-624 154.5-634.35 144-644.7 144-660v-120q0-15.3 10.35-25.65Q164.7-816 180-816h120q15.3 0 25.65 10.289 10.35 10.29 10.35 25.5Q336-765 325.65-754.5 315.3-744 300-744h-84Zm528 0h-84q-15.3 0-25.65-10.289-10.35-10.29-10.35-25.5Q624-795 634.35-805.5 644.7-816 660-816h120q15.3 0 25.65 10.35Q816-795.3 816-780v120q0 15.3-10.289 25.65-10.29 10.35-25.5 10.35Q765-624 754.5-634.35 744-644.7 744-660v-84Z"/></svg>

<svg xmlns="http://www.w3.org/2000/svg" height="20" viewBox="0 -960 960 960" width="20"><path d="M216-216h84q15.3 0 25.65 10.29Q336-195.42 336-180.21t-10.35 25.71Q315.3-144 300-144H180q-15.3 0-25.65-10.35Q144-164.7 144-180v-120q0-15.3 10.29-25.65Q164.58-336 179.79-336t25.71 10.35Q216-315.3 216-300v84Zm528 0v-84q0-15.3 10.29-25.65Q764.58-336 779.79-336t25.71 10.35Q816-315.3 816-300v120q0 15.3-10.35 25.65Q795.3-144 780-144H660q-15.3 0-25.65-10.29Q624-164.58 624-179.79t10.35-25.71Q644.7-216 660-216h84ZM216-744v84q0 15.3-10.29 25.65Q195.42-624 180.21-624t-25.71-10.35Q144-644.7 144-660v-120q0-15.3 10.35-25.65Q164.7-816 180-816h120q15.3 0 25.65 10.29Q336-795.42 336-780.21t-10.35 25.71Q315.3-744 300-744h-84Zm528 0h-84q-15.3 0-25.65-10.29Q624-764.58 624-779.79t10.35-25.71Q644.7-816 660-816h120q15.3 0 25.65 10.35Q816-795.3 816-780v120q0 15.3-10.29 25.65Q795.42-624 780.21-624t-25.71-10.35Q744-644.7 744-660v-84Z"/></svg>
